X: 14
T: Missa La belle se siet / Credo
N: Derived from Ort1003c-Missa_La_belle_se_siet-Credo.krn
C: Marbrianus de Orto
%%abc-version 2.0
%%abcx-abcm2ps-target-version 5.9.1 (29 Sep 2008)
%%abc-creator hum2abc beta
%%abcx-conversion-date 2019/02/17 07:28:37
%%abc-edited-by Jesse Rodin
%%abc-edited-by Jesse Rodin 8/10/2013
%%abcx-initial-encoding-date 2013/08/10/
%%humdrum-veritas 109015446
%%humdrum-veritas-data 3816678962
%%linebreak <none>
%%barnumbers 0
L: 1/4
M: 3/1
Q: 1/2=120
%%staves [1 2 3 4]
V: 1 clef=treble
V: 2 clef=treble-8
V: 3 clef=treble-8
V: 4 clef=bass
K: F
[V:1] F8F4 | 
[V:2] F4F3GA2B2- | 
[V:3] z12 | 
[V:4] z12 | 
[V:1] G4G2G2G4 | 
[V:2] B2c2c2B4AG | 
[V:3] z12 | 
[V:4] z12 | 
[V:1] A4z4z4 | 
[V:2] F4z4z4 | 
[V:3] F4F4F4 | 
[V:4] z2F,4D,4B,,2- | 
[V:1] z12 | 
[V:2] z12 | 
[V:3] G4G2G2G4 | 
[V:4] B,,2C,4B,,2C,B,,A,,G,, | 
[V:1] z4E2E2F3F | 
[V:2] z4c2c2d3d | 
[V:3] A4A2A2A3A | 
[V:4] F,,4A,,2A,,2D,3D, | 
[V:1] E4D2D2C2F2 | 
[V:2] c4F3GABcd | 
[V:3] A4A2A2A4 | 
[V:4] A,,4D,2D,2F,3E, | 
[V:1] G2A3GG4^F2 | 
[V:2] e2f2d2c2d2d2 | 
[V:3] c2c2B2G2A2A2 | 
[V:4] C,2F,2G,2E,2D,2D,2 | 
[V:1] G4z2D2_E2E2 | 
[V:2] d4z2B2c3G | 
[V:3] G4z2G2G2G2 | 
[V:4] G,,4z2G,,2C,2C,2 | 
[V:1] D2DD_E2D2E2C2 | 
[V:2] B2BBc2B2c2F2 | 
[V:3] G2GGG2F2G2A2 | 
[V:4] B,,2G,,G,,C,2D,2C,2A,,2 | 
[V:1] D4F2F2G2G2 | 
[V:2] G2FDd4GABc | 
[V:3] B4B2B2B2B2 | 
[V:4] G,,2B,,4B,,2_E,2E,2 | 
[V:1] A4z2c3BAG | 
[V:2] d3ef2c4c2 | 
[V:3] F4F4A4 | 
[V:4] D,4B,,2A,,2F,,2F,2 | 
[V:1] F2G4F4E2 | 
[V:2] d2G2A2B2c4 | 
[V:3] B4F4G4 | 
[V:4] D,2E,2D,4C,4 | 
[V:1] F8z4 | 
[V:2] z4d4A2A2 | 
[V:3] F4z2F2F2F2 | 
[V:4] z2F,,2B,,3C,D,2D,2 | 
[V:1] z4F2F2FFF2 | 
[V:2] c2c2d4d2d2 | 
[V:3] G2G2A4A2A2 | 
[V:4] _E,4D,8 | 
[V:1] G2G2A4A2c2- | 
[V:2] d2d2f2fff4 | 
[V:3] B2B2A2c3BAG | 
[V:4] G,4F,4F,4 | 
[V:1] cBAGB4A4 | 
[V:2] c2d2d3dd4 | 
[V:3] F3ED2G4^F2 | 
[V:4] z4z4D,4 | 
[V:1] G4z2G2F2F2 | 
[V:2] z2B2B3GA2B2 | 
[V:3] G4z4z4 | 
[V:4] E,3F,G,2E,2D,4 | 
[V:1] G2A2B2AGF4 | 
[V:2] c4d4z2D2 | 
[V:3] z2F2G4A4 | 
[V:4] C,2A,,2G,,4D,4 | 
[V:1] z12 | 
[V:2] G3EF2G4E2 | 
[V:3] B4z2B2B2A2 | 
[V:4] z2G,,2A,,2G,,2C,4 | 
[V:1] D3EFGABc2A2 | 
[V:2] F2B2A2D2CDEF | 
[V:3] B4F3GABc2 | 
[V:4] B,,4D,3C,A,,4 | 
[V:1] B3AGFF4E2 | 
[V:2] GABcd2B2c4 | 
[V:3] d2B4F2G4 | 
[V:4] G,,3A,,B,,C,D,2C,4 | 
[V:1] F4z4z4 | 
[V:2] z2C3DEFG2F2- | 
[V:3] F4c4c2c2 | 
[V:4] F,,3G,,A,,B,,C,D,E,2F,2 | 
[V:1] z12 | 
[V:2] FGA4F4E2 | 
[V:3] d2c4BAB4 | 
[V:4] B,,2A,,2F,,4G,,4 | 
[V:1] c4c2c2d2c2- | 
[V:2] F2A3GF2f4 | 
[V:3] A4z4z4 | 
[V:4] F,,2F,3G,A,2B,2A,2- | 
[V:1] c2BAB2B2A4 | 
[V:2] F4G4F2f2 | 
[V:3] z4z4c4 | 
[V:4] A,2F,4E,2F,3G, | 
[V:1] z12 | 
[V:2] e4d2e4dc | 
[V:3] c2c2d2c4A2 | 
[V:4] A,2A,,2B,,2A,,4A,2- | 
[V:1] z4c4c2c2 | 
[V:2] d4z2ABcde2 | 
[V:3] B4A4z4 | 
[V:4] A,2G,2A,2F,3E,C,2 | 
[V:1] d2c4BAB2B2 | 
[V:2] f4z2f2d3e | 
[V:3] z12 | 
[V:4] B,,2F,2E,2F,2G,4 | 
[V:1] A4z4z4 | 
[V:2] f4z2F4G2 | 
[V:3] c4c2c2d2c2- | 
[V:4] z2F,3G,A,2D,2E,2 | 
[V:1] z4z4c4- | 
[V:2] A2F4E2A2G2 | 
[V:3] c2A2B4A4 | 
[V:4] F,2F,,2G,,4F,,2C,2 | 
[V:1] c2B2A4G4- | 
[V:2] F2G2c3de4 | 
[V:3] z4c4c4 | 
[V:4] A,,2G,,2F,,2F,2E,2C,2 | 
[V:1] G4F4G2B2 | 
[V:2] d4d2cd_e2d2- | 
[V:3] B4A4G4 | 
[V:4] G,4D,2F,2C,2G,,2 | 
[V:1] A4z2G4F2 | 
[V:2] d2d2B4c2d2 | 
[V:3] F4G2B2A4 | 
[V:4] D,4_E,4z2D,2 | 
[V:1] B3AGFF4E2 | 
[V:2] B2G3AB2c4- | 
[V:3] G2B3AGFG4 | 
[V:4] _E,6D,2C,4 | 
[V:1] F12 ||  
[V:2] c12 ||  
[V:3] F12 ||  
[V:4] F,,12 ||  
[V:1]  [K:F] [K:clef=treble][M:2/1]z8 | 
[V:2]  [K:F] [K:clef=treble-8][M:2/1]A8 | 
[V:3]  [K:F] [K:clef=treble-8][M:2/1]F8 | 
[V:4]  [K:F] [K:clef=bass][M:2/1]D,8 | 
[V:1] z8 | 
[V:2] A4A4 | 
[V:3] F4F4 | 
[V:4] D,4F,4 | 
[V:1] z8 | 
[V:2] B4c4 | 
[V:3] G4G4 | 
[V:4] _E,4E,4 | 
[V:1] F8 | 
[V:2] d8 | 
[V:3] A8 | 
[V:4] D,8 | 
[V:1] F4F4 | 
[V:2] z4d4 | 
[V:3] z4A4 | 
[V:4] B,,4D,4 | 
[V:1] G4G4 | 
[V:2] e6e2 | 
[V:3] c6c2 | 
[V:4] C,8 | 
[V:1] A8 | 
[V:2] f4f4 | 
[V:3] c4c4 | 
[V:4] F,,8 | 
[V:1] z4A4 | 
[V:2] f6ed | 
[V:3] d4c4 | 
[V:4] B,,4F,4- | 
[V:1] c8 | 
[V:2] c8 | 
[V:3] A8 | 
[V:4] F,2F,2F,4 | 
[V:1] B4B4 | 
[V:2] z4d4- | 
[V:3] z8 | 
[V:4] G,8 | 
[V:1] A8 | 
[V:2] d4c4 | 
[V:3] F3GA3B | 
[V:4] D,4F,4 | 
[V:1] G8 | 
[V:2] e8 | 
[V:3] c8 | 
[V:4] C,8 | 
[V:1] z4G4- | 
[V:2] z4e4- | 
[V:3] z4c4- | 
[V:4] z4C,4- | 
[V:1] G4G4 | 
[V:2] e4d4 | 
[V:3] c4B4 | 
[V:4] C,4G,,4 | 
[V:1] G4F4 | 
[V:2] c4A4 | 
[V:3] G4D4 | 
[V:4] C,4D,4 | 
[V:1] G4A4 | 
[V:2] c4c4 | 
[V:3] E4F4 | 
[V:4] C,4A,,4 | 
[V:1] B6AG | 
[V:2] d8 | 
[V:3] G3AB4- | 
[V:4] G,,6A,,2 | 
[V:1] F8 | 
[V:2] d6cB | 
[V:3] B2AGF4 | 
[V:4] B,,6A,,G,, | 
[V:1] z8 | 
[V:2] c8 | 
[V:3] z8 | 
[V:4] F,,8 | 
[V:1] A8 | 
[V:2] f8 | 
[V:3] c8 | 
[V:4] F,8 | 
[V:1] B6A2 | 
[V:2] g6f2 | 
[V:3] G6A2 | 
[V:4] _E,6D,2 | 
[V:1] G4F4 | 
[V:2] _e4d4 | 
[V:3] B4B4 | 
[V:4] _E,4B,,4 | 
[V:1] E4E4 | 
[V:2] c8- | 
[V:3] G8 | 
[V:4] C,8 | 
[V:1] F8 ||  
[V:2] c8 ||  
[V:3] F8 ||  
[V:4] F,,8 ||  
[V:1]  [K:F] [K:clef=treble][M:2/1]F4F2F2- | 
[V:2]  [K:F] [K:clef=treble-8][M:2/1]c4c2c2- | 
[V:3]  [K:F] [K:clef=treble-8][M:2/1]F4F2A2- | 
[V:4]  [K:F] [K:clef=bass][M:2/1]F,4F,2F,2- | 
[V:1] F2F2F2F2 | 
[V:2] c2d2d2d2 | 
[V:3] A2A2B2B2 | 
[V:4] F,2D,2B,,2B,,2 | 
[V:1] F2F2G4 | 
[V:2] d2d2d4 | 
[V:3] A2A2B4 | 
[V:4] D,2D,2G,,4 | 
[V:1] A4z2A2 | 
[V:2] d4z2f2- | 
[V:3] A4z2d2 | 
[V:4] D,4z2D,2 | 
[V:1] A2A2c3B | 
[V:2] f2f2f2f2- | 
[V:3] d2c2A2c2- | 
[V:4] D,2F,2F,2F,2- | 
[V:1] AGG4^F2 | 
[V:2] f2c2d4 | 
[V:3] cBAGA4 | 
[V:4] F,G,E,2D,4 | 
[V:1] G4G2G2 | 
[V:2] d4c2c2 | 
[V:3] G4E2G2 | 
[V:4] G,,4C,2C,2 | 
[V:1] G2F2G2A2 | 
[V:2] c2d2B2c2 | 
[V:3] G2A2G2c2 | 
[V:4] _E,2D,2E,2C,2 | 
[V:1] B4z2B2 | 
[V:2] F4z2G2 | 
[V:3] d4z2B2 | 
[V:4] B,,4z2_E,2 | 
[V:1] B2B2B4 | 
[V:2] G2B2d4 | 
[V:3] G2G2B4 | 
[V:4] _E,2G,2G,4 | 
[V:1] A4z2B2- | 
[V:2] d4d2d2 | 
[V:3] F4B4 | 
[V:4] D,4G,4 | 
[V:1] B2A2B2G2 | 
[V:2] f4B3c | 
[V:3] c4G4 | 
[V:4] F,2F,2_E,4 | 
[V:1] F4F4 | 
[V:2] d4d4 | 
[V:3] B4A2D2 | 
[V:4] B,,4D,3C, | 
[V:1] A4B4 | 
[V:2] c4B2G2- | 
[V:3] E2F2G3F | 
[V:4] A,,2A,,2G,,3A,, | 
[V:1] G2A4GF | 
[V:2] G2c4F2 | 
[V:3] DEF4A2- | 
[V:4] B,,C,F,,2F,2D,2 | 
[V:1] E2F4E2 | 
[V:2] c2d2c4 | 
[V:3] A2B2G4 | 
[V:4] C,2B,,2C,4 | 
[V:1] F4G2G2 | 
[V:2] A2A2G2E2 | 
[V:3] F4z4 | 
[V:4] F,,4z4 | 
[V:1] A4G2E2 | 
[V:2] F2F2E4 | 
[V:3] z8 | 
[V:4] z4C,2C,2 | 
[V:1] F4E4 | 
[V:2] z4c4 | 
[V:3] z8 | 
[V:4] D,4C,2A,,2 | 
[V:1] z8 | 
[V:2] d2d2c2A2 | 
[V:3] z2F2c2c2 | 
[V:4] B,,4A,,4 | 
[V:1] z4c4 | 
[V:2] B2B2A4 | 
[V:3] d4c2A2 | 
[V:4] z8 | 
[V:1] d2d2c2A2 | 
[V:2] z2G2A2A2 | 
[V:3] B4A4 | 
[V:4] z8 | 
[V:1] B2B2A4 | 
[V:2] G3EF2F2 | 
[V:3] z8 | 
[V:4] z2G,,2D,2D,2 | 
[V:1] z8 | 
[V:2] E4G4 | 
[V:3] z2c2d2d2 | 
[V:4] C,2A,,2B,,2B,,2 | 
[V:1] z4z2G2 | 
[V:2] A2A2G3E | 
[V:3] c2A2B2B2 | 
[V:4] A,,4z4 | 
[V:1] A4G3E | 
[V:2] F2F2E2G2 | 
[V:3] A4z4 | 
[V:4] z8 | 
[V:1] F2F2E2C2 | 
[V:2] A3FG2A2- | 
[V:3] z8 | 
[V:4] D,4C,2A,,2 | 
[V:1] D4EFGA | 
[V:2] A2G2A4 | 
[V:3] z4c4 | 
[V:4] B,,2B,,2A,,4 | 
[V:1] B2A4G2 | 
[V:2] G2F2G4 | 
[V:3] d4B4 | 
[V:4] z8 | 
[V:1] c2BAG2A2- | 
[V:2] ABcde2f2 | 
[V:3] A4z4 | 
[V:4] F,4E,2D,2 | 
[V:1] AGE4G2- | 
[V:2] e2c3BG2- | 
[V:3] z4c4 | 
[V:4] C,4z2_E,2- | 
[V:1] G2F4E2 | 
[V:2] G2c4c2 | 
[V:3] B2A2G4 | 
[V:4] E,2F,2C,2C,2 | 
[V:1] F4z2F2- | 
[V:2] A4z2B2- | 
[V:3] F4z2F2- | 
[V:4] F,,4z2B,,2- | 
[V:1] F2F2F2F2 | 
[V:2] B2d2d2d2 | 
[V:3] F2B2A2A2 | 
[V:4] B,,2B,,2D,2D,2 | 
[V:1] G4z2F2- | 
[V:2] d4z2d2- | 
[V:3] G4z2A2- | 
[V:4] G,,4z2D,2- | 
[V:1] F2F2F2F2 | 
[V:2] d2d2d2d2 | 
[V:3] A2B2A2B2 | 
[V:4] D,2B,,2D,2D,2 | 
[V:1] G4B4 | 
[V:2] e4f4 | 
[V:3] c4d4 | 
[V:4] C,4B,,4 | 
[V:1] A2B2A2B2- | 
[V:2] f2f2e2f2 | 
[V:3] c2d2c2d2 | 
[V:4] F,2B,,2C,2B,,2 | 
[V:1] B2AGG2^F2 | 
[V:2] B2c2d4 | 
[V:3] G4A4 | 
[V:4] _E,4D,4 | 
[V:1] G4z2B2- | 
[V:2] B4A2G2- | 
[V:3] G4z4 | 
[V:4] G,,4z4 | 
[V:1] B2A2G4 | 
[V:2] GFf4e2 | 
[V:3] z8 | 
[V:4] z8 | 
[V:1] F4z4 | 
[V:2] d4c2B2 | 
[V:3] z4z2B2- | 
[V:4] B,,4A,,2G,,2 | 
[V:1] z4B4 | 
[V:2] c4d2B2 | 
[V:3] B2A2G4 | 
[V:4] F,,4z4 | 
[V:1] A4G4 | 
[V:2] c4z4 | 
[V:3] F4z2c2 | 
[V:4] z2F,2E,4 | 
[V:1] F4z4 | 
[V:2] z2F2G2A2 | 
[V:3] c2B2c4 | 
[V:4] D,4C,4 | 
[V:1] z8 | 
[V:2] G2F2E2D2 | 
[V:3] B2A4G2 | 
[V:4] z2D,2C,2B,,2 | 
[V:1] z2F4E2 | 
[V:2] E2F2D2C2 | 
[V:3] A2A4A2 | 
[V:4] A,,2D,4A,,2 | 
[V:1] E2C2D4 | 
[V:2] E3FG4 | 
[V:3] G2A2B4 | 
[V:4] C,2A,,2G,,4 | 
[V:1] C4z2C2- | 
[V:2] E2F2E2A2- | 
[V:3] A4E2F2 | 
[V:4] A,,4A,,4 | 
[V:1] CDE2F2D2- | 
[V:2] ABc2A2B2- | 
[V:3] E2C2z2G2 | 
[V:4] A,,4F,,2G,,2 | 
[V:1] D2G3FE2 | 
[V:2] B2G2c4 | 
[V:3] F2E2C2G2- | 
[V:4] B,,2C,4C,2 | 
[V:1] D2C4=B,2 | 
[V:2] d2G4G2 | 
[V:3] G2E2D4 | 
[V:4] B,,2C,2G,,4 | 
[V:1] C4z4 | 
[V:2] E2A4B2 | 
[V:3] C4z4 | 
[V:4] C,2C,2D,4 | 
[V:1] z8 | 
[V:2] c2c2c4 | 
[V:3] z2G2A2G2- | 
[V:4] C,4A,,2C,2 | 
[V:1] z8 | 
[V:2] z4G4 | 
[V:3] G2F2E4 | 
[V:4] D,4C,4 | 
[V:1] z4z2G2- | 
[V:2] A4G4 | 
[V:3] z2C2G2E2 | 
[V:4] A,,4C,4 | 
[V:1] G2E2A2GF | 
[V:2] E2C2F4 | 
[V:3] C2c4=B2 | 
[V:4] C,4D,4 | 
[V:1] E4z2E2 | 
[V:2] G2A4G2 | 
[V:3] c8 | 
[V:4] C,4A,,2C,2 | 
[V:1] F2G2A3B | 
[V:2] F2E4A2- | 
[V:3] z2c4c2 | 
[V:4] D,2C,2A,,4 | 
[V:1] c4z2C2 | 
[V:2] ABcde2z2 | 
[V:3] A2E2E2G2 | 
[V:4] z2A,,2C,2C,2 | 
[V:1] F2E2E2E2 | 
[V:2] A2c4c2 | 
[V:3] F2G2A4 | 
[V:4] D,2C,2A,,2C,2 | 
[V:1] F3EC4 | 
[V:2] A4e4 | 
[V:3] z4E2A2- | 
[V:4] D,3C,A,,4 | 
[V:1] F3GA2B2- | 
[V:2] c2d2c2d2- | 
[V:3] A2B2A2G2 | 
[V:4] z4z2G,,2- | 
[V:1] BAG2F2G2 | 
[V:2] d2d4G2 | 
[V:3] B4A2c2 | 
[V:4] G,,A,,B,,C,D,2E,2 | 
[V:1] C2F4E2 | 
[V:2] c2d2c4- | 
[V:3] A2B2G4 | 
[V:4] F,2B,,2C,4 | 
[V:1] F8 ||  
[V:2] c8 ||  
[V:3] F8 ||  
[V:4] F,,8 ||  
[V:1]  [K:F] [K:clef=treble][M:3/1]z12 | 
[V:2]  [K:F] [K:clef=treble-8][M:3/1]c8c4 | 
[V:3]  [K:F] [K:clef=treble-8][M:3/1]F8F4 | 
[V:4]  [K:F] [K:clef=bass][M:3/1]F,,8F,,4 | 
[V:1] z12 | 
[V:2] d4d8 | 
[V:3] F4G8 | 
[V:4] B,,4B,,8 | 
[V:1] F8F4 | 
[V:2] c4A4d4- | 
[V:3] A12- | 
[V:4] A,,4D,8 | 
[V:1] F4G8 | 
[V:2] d4d6B2 | 
[V:3] A4B8 | 
[V:4] D,4G,,8 | 
[V:1] A4c6B2 | 
[V:2] c6B2A2G2 | 
[V:3] A8A4 | 
[V:4] F,,12 | 
[V:1] A2G2A6G2 | 
[V:2] F2E2F4G4 | 
[V:3] c8B4 | 
[V:4] z12 | 
[V:1] G6^F2F2E2 | 
[V:2] E4D8 | 
[V:3] G4A8 | 
[V:4] z12 | 
[V:1] G4G4G4 | 
[V:2] d6c2B4 | 
[V:3] G8z4 | 
[V:4] G,,6A,,2B,,2C,2 | 
[V:1] F4G4A4 | 
[V:2] A4c8 | 
[V:3] z12 | 
[V:4] D,4E,4F,4 | 
[V:1] B8B4 | 
[V:2] B4d8- | 
[V:3] G8G4 | 
[V:4] G,4G,,8 | 
[V:1] B8A2G2 | 
[V:2] d8c4 | 
[V:3] F4G4A4 | 
[V:4] B,,4z4z4 | 
[V:1] F8z4 | 
[V:2] d8d4 | 
[V:3] B8B4 | 
[V:4] z12 | 
[V:1] D6E2F4- | 
[V:2] B4d6c2 | 
[V:3] B4B8 | 
[V:4] G,,4B,,6C,2 | 
[V:1] F2G2A2B2c4 | 
[V:2] A8z4 | 
[V:3] F6G2A4 | 
[V:4] D,2E,2F,6E,2 | 
[V:1] F4G6F2 | 
[V:2] d4G4A4 | 
[V:3] B8F4- | 
[V:4] D,2B,,2_E,4D,4- | 
[V:1] F8E4 | 
[V:2] B4c8 | 
[V:3] F4G8 | 
[V:4] D,4C,8 | 
[V:1] F8z4 | 
[V:2] c8d4 | 
[V:3] F8z4 | 
[V:4] F,,8z4 | 
[V:1] z12 | 
[V:2] c4A4B4 | 
[V:3] z12 | 
[V:4] C,8D,4 | 
[V:1] c8d4 | 
[V:2] A8G4 | 
[V:3] z12 | 
[V:4] C,4A,,4B,,4 | 
[V:1] c4A4B4 | 
[V:2] A8G4 | 
[V:3] c8d4 | 
[V:4] A,,8z4 | 
[V:1] A8G4 | 
[V:2] A4d8 | 
[V:3] c4B8 | 
[V:4] z12 | 
[V:1] A8G4 | 
[V:2] c12- | 
[V:3] A8z4 | 
[V:4] A,,2B,,2C,2D,2E,4 | 
[V:1] E4F8 | 
[V:2] c4A4B4 | 
[V:3] z12 | 
[V:4] C,4D,8 | 
[V:1] E2F2G2A2B4 | 
[V:2] c4A4G4 | 
[V:3] c4c4d4 | 
[V:4] C,8z4 | 
[V:1] A8G4 | 
[V:2] z4d8 | 
[V:3] c4B8 | 
[V:4] z12 | 
[V:1] c8B4 | 
[V:2] c4A4G4 | 
[V:3] A8z4 | 
[V:4] F,8G,4 | 
[V:1] A4G6F2 | 
[V:2] c4_e8 | 
[V:3] c8B4 | 
[V:4] F,4_E,8 | 
[V:1] F8E4 | 
[V:2] d4c8 | 
[V:3] A4G8 | 
[V:4] F,4C,8 | 
[V:1] F8F4 | 
[V:2] A8D4 | 
[V:3] F6G2A4 | 
[V:4] F,,4z4z4 | 
[V:1] G8B4- | 
[V:2] _E8_E4 | 
[V:3] G4B6A2 | 
[V:4] z12 | 
[V:1] B4A8 | 
[V:2] G4D8 | 
[V:3] G6^F2^F2E2 | 
[V:4] z12 | 
[V:1] G8B4 | 
[V:2] d6c2d2e2 | 
[V:3] G8z4 | 
[V:4] z12 | 
[V:1] A4G8 | 
[V:2] f8e4 | 
[V:3] z12 | 
[V:4] z4z4C,4 | 
[V:1] F4z4z4 | 
[V:2] f6e2d2c2 | 
[V:3] z12 | 
[V:4] D,8F,4- | 
[V:1] z12 | 
[V:2] d8c4 | 
[V:3] z12 | 
[V:4] F,4E,8 | 
[V:1] z12 | 
[V:2] B4A6G2 | 
[V:3] z12 | 
[V:4] D,8F,4 | 
[V:1] z12 | 
[V:2] c8=B4 | 
[V:3] z4z4F4 | 
[V:4] E,4D,8 | 
[V:1] E6F2G4 | 
[V:2] c8d4- | 
[V:3] G8B4- | 
[V:4] C,8G,,4- | 
[V:1] D4F8 | 
[V:2] d12 | 
[V:3] B4A8 | 
[V:4] G,,4D,8 | 
[V:1] G4B6A2 | 
[V:2] B6c2d4 | 
[V:3] G8B4 | 
[V:4] _E,6D,2B,,4 | 
[V:1] F4z4B4 | 
[V:2] c4d6G2 | 
[V:3] A4G8 | 
[V:4] F,6E,2E,2D,2 | 
[V:1] A4G6F2 | 
[V:2] c4_e8 | 
[V:3] F4B8 | 
[V:4] F,4_E,8 | 
[V:1] F6E2E2D2 | 
[V:2] c12- | 
[V:3] A4G8 | 
[V:4] F,4C,8 | 
[V:1] F12 |]  
[V:2] c12 |]  
[V:3] F12 |]  
[V:4] F,,12 |]  



